Origami/64x64/apps/distributor-logo-linux-mint.svg

<svg width="64" height="64" version="1.1" xmlns="http://www.w3.org/2000/svg">
 <defs>
  <linearGradient id="linearGradient3741" x1="56" x2="56" y1="92.001" y2="4.001" gradientTransform="matrix(.75 0 0 .75 -2 -4)" gradientUnits="userSpaceOnUse">
   <stop stop-color="#f2f2f2" offset="0"/>
   <stop stop-color="#fff" offset="1"/>
  </linearGradient>
 </defs>
 <rect transform="matrix(0,-1,-1,0,0,0)" x="-60" y="-60" width="56" height="56" rx="3" ry="3" style="fill:#7ec242"/>
 <path d="m7.0000012 4c-1.6619997 0-2.9999997 1.338-2.9999997 3v1c0-1.662 1.338-3 2.9999997-3h50c1.662 0 3 1.338 3 3v-1c0-1.662-1.338-3-3-3h-50z" style="fill:#ffffff;opacity:.1"/>
 <path d="m4.0000015 57v1c0 1.662 1.338 3 2.9999997 3h50c1.662 0 3-1.338 3-3v-1c0 1.662-1.338 3-3 3h-50c-1.6619997 0-2.9999997-1.338-2.9999997-3z" style="opacity:.2"/>
 <path d="m8.999999 14v12h6.000001v12c0 8 5 15 13 15h26v-25c0-8.226-6.774095-13.960395-15-14zm3.000001 3h27c6.615 0 12 4.385 12 11v22h-23c-6 0-10-6-10-12v-11c0-2.964718-1.152219-4-4-4h-2z" style="opacity:.2"/>
 <path d="m8.999999 13v12h6.000001v12c0 8 5 15 13 15h26v-25c0-8.226-6.774095-13.960395-15-14zm3.000001 3h27c6.615 0 12 4.385 12 11v22h-23c-6 0-10-6-10-12v-11c0-2.964718-1.152219-4-4-4h-2z" style="fill:url(#linearGradient3741)"/>
 <path d="m22 19.99995v20c0 4.00005 3 6.00005 6 6.00005h14c3.324 0 5-1.676 5-5v-13c0-2.498998-2.568242-4-5-4-1.473105 0-2.577211 0.657327-3.530611 1.634577-0.953445-0.97725-1.996239-1.634577-3.469389-1.634577-2.636395 0-5 1.53728-5 4v10h3l-1e-6 -8.99995c0-1.2426 0.75737-2 2-2s2 0.757378 2 2l1e-6 8.99995h3l-1e-6 -9.00005c0-1.2426 0.757371-1.99995 2.000001-1.99995s1.999999 0.75735 1.999999 1.99995l1e-6 12c0 1.662-0.337999 1.999938-1.999999 1.99995l-14.000001 1e-4c-2 1.4e-5 -3-2-3-4v-19z" style="opacity:.2"/>
 <path d="m22 18.99995v20c0 4.00005 3 6.00005 6 6.00005h14c3.324 0 5-1.676 5-5v-13c0-2.498998-2.568242-4-5-4-1.473105 0-2.577211 0.657327-3.530611 1.634577-0.953445-0.97725-1.996239-1.634577-3.469389-1.634577-2.636395 0-5 1.53728-5 4v10h3l-1e-6 -8.99995c0-1.2426 0.75737-2 2-2s2 0.757378 2 2l1e-6 8.99995h3l-1e-6 -9.00005c0-1.2426 0.757371-1.99995 2.000001-1.99995s1.999999 0.75735 1.999999 1.99995l1e-6 12c0 1.662-0.337999 1.999938-1.999999 1.99995l-14.000001 1e-4c-2 1.4e-5 -3-2-3-4v-19z" style="fill:#ffffff"/>
</svg>

<svg xmlns="http://www.w3.org/2000/svg" width="64" height="64" version="1.1">
 <defs>
  <linearGradient id="linearGradient3741" x1="56" x2="56" y1="92.001" y2="4.001" gradientTransform="matrix(0.75,0,0,0.75,-2,-4)" gradientUnits="userSpaceOnUse">
   <stop offset="0" stop-color="#f2f2f2"/>
   <stop offset="1" stop-color="#fff"/>
  </linearGradient>
 </defs>
 <rect style="fill:#7ec242" width="56" height="56" x="-60" y="-60" rx="3" ry="3" transform="matrix(0,-1,-1,0,0,0)"/>
 <path style="opacity:0.1;fill:#ffffff" d="M 7.0000012,4 C 5.3380015,4 4.0000015,5.338 4.0000015,7 l 0,1 c 0,-1.662 1.338,-3 2.9999997,-3 L 57.000001,5 c 1.662,0 3,1.338 3,3 l 0,-1 c 0,-1.662 -1.338,-3 -3,-3 L 7.0000012,4 Z"/>
 <path style="opacity:0.2" d="m 4.0000015,57 0,1 c 0,1.662 1.338,3 2.9999997,3 l 49.9999998,0 c 1.662,0 3,-1.338 3,-3 l 0,-1 c 0,1.662 -1.338,3 -3,3 L 7.0000012,60 C 5.3380015,60 4.0000015,58.662 4.0000015,57 Z"/>
 <path style="opacity:0.2" d="m 8.999999,14 0,12 L 15,26 15,38 c 0,8 5,15 13,15 l 26,0 0,-25 C 54,19.774 47.225905,14.039605 39,14 Z M 12,17 39,17 c 6.615,0 12,4.385 12,11 l 0,22 -23,0 C 22,50 18,44 18,38 l 0,-11 c 0,-2.964718 -1.152219,-4 -4,-4 l -2,0 z"/>
 <path style="fill:url(#linearGradient3741)" d="m 8.999999,13 0,12 L 15,25 15,37 c 0,8 5,15 13,15 l 26,0 0,-25 C 54,18.774 47.225905,13.039605 39,13 Z M 12,16 39,16 c 6.615,0 12,4.385 12,11 l 0,22 -23,0 C 22,49 18,43 18,37 l 0,-11 c 0,-2.964718 -1.152219,-4 -4,-4 l -2,0 z"/>
 <path style="opacity:0.2" d="m 22,19.99995 0,20 C 22,44 25,46 28,46 l 14,0 c 3.324,0 5,-1.676 5,-5 l 0,-13 c 0,-2.498998 -2.568242,-4 -5,-4 -1.473105,0 -2.577211,0.657327 -3.530611,1.634577 C 37.515944,24.657327 36.47315,24 35,24 c -2.636395,0 -5,1.53728 -5,4 l 0,10 3,0 -10e-7,-8.99995 c 0,-1.2426 0.75737,-2 2,-2 1.24263,0 2,0.757378 2,2 L 37,38 l 3,0 -10e-7,-9.00005 C 39.999999,27.75735 40.75737,27 42,27 c 1.24263,0 1.999999,0.75735 1.999999,1.99995 l 10e-7,12 c 0,1.662 -0.337999,1.999938 -1.999999,1.99995 L 28,43 c -2,1.4e-5 -3,-2 -3,-4 l 0,-19 z"/>
 <path style="fill:#ffffff" d="m 22,18.99995 0,20 C 22,43 25,45 28,45 l 14,0 c 3.324,0 5,-1.676 5,-5 l 0,-13 c 0,-2.498998 -2.568242,-4 -5,-4 -1.473105,0 -2.577211,0.657327 -3.530611,1.634577 C 37.515944,23.657327 36.47315,23 35,23 c -2.636395,0 -5,1.53728 -5,4 l 0,10 3,0 -10e-7,-8.99995 c 0,-1.2426 0.75737,-2 2,-2 1.24263,0 2,0.757378 2,2 L 37,37 l 3,0 -10e-7,-9.00005 C 39.999999,26.75735 40.75737,26 42,26 c 1.24263,0 1.999999,0.75735 1.999999,1.99995 l 10e-7,12 c 0,1.662 -0.337999,1.999938 -1.999999,1.99995 L 28,42 c -2,1.4e-5 -3,-2 -3,-4 l 0,-19 z"/>
</svg>
